svgs/regular/square-phone-flip.svg

<svg xmlns="http://www.w3.org/2000/svg" viewBox="0 0 448 512"><!--! Font Awesome Pro 6.0.0-alpha3 by @fontawesome - https://fontawesome.com License - https://fontawesome.com/license (Commercial License) --><path d="M339.9 140l-50.38-11.63c-7.344-1.703-14.88 2.109-17.93 9.062l-23.27 54.28c-2.719 6.391-.8828 13.83 4.492 18.22l26.91 22.05c-16.99 34.61-45.14 62.75-79.77 79.75L177.9 284.9c-4.344-5.391-11.85-7.25-18.24-4.484L105.5 303.6c-6.953 3-10.74 10.58-9.055 17.88l11.62 50.39c1.633 7.125 7.9 12.11 15.24 12.11c126.1 0 228.7-102.6 228.7-228.8C352 147.9 347 141.7 339.9 140zM384 32H64C28.65 32 0 60.66 0 96v320c0 35.34 28.65 64 64 64h320c35.35 0 64-28.66 64-64V96C448 60.66 419.3 32 384 32zM400 416c0 8.82-7.178 16-16 16H64c-8.822 0-16-7.18-16-16V96c0-8.82 7.178-16 16-16h320c8.822 0 16 7.18 16 16V416z"/></svg>

<svg xmlns="http://www.w3.org/2000/svg" viewBox="0 0 448 512"><!-- Font Awesome Pro 6.0.0-alpha2 by @fontawesome - https://fontawesome.com License - https://fontawesome.com/license (Commercial License) --><path d="M339.893 140.031L289.516 128.406C282.172 126.703 274.633 130.516 271.586 137.469L248.32 191.75C245.602 198.141 247.438 205.578 252.813 209.969L279.727 232.018C262.734 266.627 234.586 294.768 199.961 311.768L177.938 284.861C173.594 279.471 166.086 277.611 159.695 280.377L105.451 303.627C98.498 306.627 94.709 314.205 96.396 321.502L108.021 371.893C109.654 379.018 115.922 384.002 123.258 384.002C249.383 384.002 352.002 281.393 352.002 155.25C352.002 147.922 347.018 141.656 339.893 140.031ZM384 32H64C28.654 32 0 60.656 0 96V416C0 451.344 28.654 480 64 480H384C419.346 480 448 451.344 448 416V96C448 60.656 419.346 32 384 32ZM400 416C400 424.82 392.822 432 384 432H64C55.178 432 48 424.82 48 416V96C48 87.18 55.178 80 64 80H384C392.822 80 400 87.18 400 96V416Z"/></svg>
